src/assets/img/meter2.svg

<svg width="204" height="204" viewBox="0 0 204 204" fill="none" xmlns="http://www.w3.org/2000/svg">
<path d="M187.639 69.9021C193.092 67.8586 199.226 70.6143 200.696 76.2484C206.238 97.4863 204.802 120.051 196.436 140.546C186.737 164.31 168.435 183.543 145.182 194.409C121.928 205.275 95.4333 206.975 70.9821 199.169C46.5309 191.364 25.9211 174.628 13.2642 152.299C0.607328 129.97 -3.16618 103.69 2.6965 78.7016C8.55918 53.7134 23.627 31.854 44.8941 17.4842C66.1612 3.11439 92.0641 -2.7094 117.435 1.17464C139.317 4.52444 159.415 14.8827 174.791 30.5466C178.869 34.702 178.083 41.3805 173.529 45.009C168.975 48.6374 162.385 47.8272 158.195 43.7832C146.212 32.2155 130.877 24.5642 114.244 22.0179C94.1181 18.9368 73.5701 23.5566 56.6994 34.9558C39.8288 46.355 27.8758 63.6955 23.2251 83.518C18.5744 103.34 21.5679 124.188 31.6082 141.901C41.6486 159.614 57.9979 172.89 77.3943 179.082C96.7908 185.274 117.809 183.925 136.255 175.305C154.701 166.686 169.219 151.429 176.914 132.578C183.273 116.999 184.584 99.9117 180.815 83.688C179.497 78.0164 182.187 71.9457 187.639 69.9021Z" fill="url(#paint0_linear_16_344)"/>
<path d="M75.656 89.8C71.048 89.8 67.16 92.644 67.16 96.964C67.16 99.016 68.276 100.636 69.968 101.644C68.06 102.616 66.08 104.668 66.08 107.548C66.08 112.552 70.652 115.504 75.656 115.504C80.66 115.504 85.232 112.552 85.232 107.548C85.232 104.668 83.252 102.616 81.344 101.644C83.036 100.636 84.152 99.016 84.152 96.964C84.152 92.644 80.264 89.8 75.656 89.8ZM78.752 107.188C78.752 108.88 77.492 110.104 75.656 110.104C73.82 110.104 72.56 108.88 72.56 107.188C72.56 105.568 73.82 104.308 75.656 104.308C77.492 104.308 78.752 105.568 78.752 107.188ZM75.656 95.056C77.096 95.056 78.212 96.028 78.212 97.432C78.212 98.836 77.132 99.808 75.656 99.808C74.18 99.808 73.1 98.836 73.1 97.432C73.1 96.028 74.216 95.056 75.656 95.056ZM109.525 102.652C109.525 95.848 105.637 89.8 98.5807 89.8C91.4887 89.8 87.6007 95.848 87.6007 102.652C87.6007 109.456 91.4887 115.504 98.5807 115.504C105.637 115.504 109.525 109.456 109.525 102.652ZM102.829 102.652C102.829 106 101.533 109.276 98.5807 109.276C95.5927 109.276 94.2967 106 94.2967 102.652C94.2967 99.304 95.5927 96.028 98.5807 96.028C101.533 96.028 102.829 99.304 102.829 102.652ZM124.381 96.028C124.381 92.608 121.609 89.944 118.045 89.944C114.481 89.944 111.709 92.608 111.709 96.028C111.709 99.448 114.481 102.112 118.045 102.112C121.609 102.112 124.381 99.448 124.381 96.028ZM120.133 96.028C120.133 97.288 119.233 98.152 118.045 98.152C116.857 98.152 115.957 97.288 115.957 96.028C115.957 94.768 116.857 93.904 118.045 93.904C119.233 93.904 120.133 94.768 120.133 96.028ZM137.881 90.268H132.373L114.013 115H119.521L137.881 90.268ZM127.513 109.24C127.513 112.66 130.285 115.324 133.849 115.324C137.413 115.324 140.185 112.66 140.185 109.24C140.185 105.82 137.413 103.156 133.849 103.156C130.285 103.156 127.513 105.82 127.513 109.24ZM131.761 109.24C131.761 107.98 132.661 107.116 133.849 107.116C135.037 107.116 135.937 107.98 135.937 109.24C135.937 110.5 135.037 111.364 133.849 111.364C132.661 111.364 131.761 110.5 131.761 109.24Z" fill="white"/>
<defs>
<linearGradient id="paint0_linear_16_344" x1="-12.4348" y1="91.2145" x2="228.124" y2="92.098" gradientUnits="userSpaceOnUse">
<stop stop-color="#AA367C"/>
<stop offset="1" stop-color="#4A2FBD"/>
</linearGradient>
</defs>
</svg>

<?xml version="1.0" encoding="utf-8"?>
<!-- Generator: Adobe Illustrator 27.7.0, SVG Export Plug-In . SVG Version: 6.00 Build 0)  -->
<svg version="1.1" id="Layer_1" xmlns="http://www.w3.org/2000/svg" xmlns:xlink="http://www.w3.org/1999/xlink" x="0px" y="0px"
	 width="204px" height="204px" viewBox="0 0 204 204" style="enable-background:new 0 0 204 204;" xml:space="preserve">
<style type="text/css">
	.st0{fill:url(#SVGID_1_);}
	.st1{fill:#FFFFFF;}
</style>
<linearGradient id="SVGID_1_" gradientUnits="userSpaceOnUse" x1="-2.305850e-04" y1="102" x2="204.0002" y2="102">
	<stop  offset="7.458905e-08" style="stop-color:#C8FF6A"/>
	<stop  offset="1" style="stop-color:#196715"/>
</linearGradient>
<path class="st0" d="M187.6,69.9c5.5-2,11.6,0.7,13.1,6.3c5.5,21.2,4.1,43.8-4.3,64.3c-9.7,23.8-28,43-51.3,53.9
	c-23.3,10.9-49.7,12.6-74.2,4.8c-24.5-7.8-45.1-24.5-57.7-46.9C0.6,130-3.2,103.7,2.7,78.7c5.9-25,20.9-46.8,42.2-61.2
	S92.1-2.7,117.4,1.2c21.9,3.3,42,13.7,57.4,29.4c4.1,4.2,3.3,10.8-1.3,14.5c-4.6,3.6-11.1,2.8-15.3-1.2c-12-11.6-27.3-19.2-44-21.8
	C94.1,18.9,73.6,23.6,56.7,35C39.8,46.4,27.9,63.7,23.2,83.5c-4.7,19.8-1.7,40.7,8.4,58.4c10,17.7,26.4,31,45.8,37.2
	c19.4,6.2,40.4,4.8,58.9-3.8c18.4-8.6,33-23.9,40.7-42.7c6.4-15.6,7.7-32.7,3.9-48.9C179.5,78,182.2,71.9,187.6,69.9z"/>
<path class="st1" d="M75.7,89.8c-4.6,0-8.5,2.8-8.5,7.2c0,2.1,1.1,3.7,2.8,4.7c-1.9,1-3.9,3-3.9,5.9c0,5,4.6,8,9.6,8
	c5,0,9.6-3,9.6-8c0-2.9-2-4.9-3.9-5.9c1.7-1,2.8-2.6,2.8-4.7C84.2,92.6,80.3,89.8,75.7,89.8z M78.8,107.2c0,1.7-1.3,2.9-3.1,2.9
	s-3.1-1.2-3.1-2.9c0-1.6,1.3-2.9,3.1-2.9S78.8,105.6,78.8,107.2z M75.7,95.1c1.4,0,2.6,1,2.6,2.4s-1.1,2.4-2.6,2.4
	c-1.5,0-2.6-1-2.6-2.4S74.2,95.1,75.7,95.1z M109.5,102.7c0-6.8-3.9-12.9-10.9-12.9c-7.1,0-11,6-11,12.9s3.9,12.9,11,12.9
	C105.6,115.5,109.5,109.5,109.5,102.7z M102.8,102.7c0,3.3-1.3,6.6-4.2,6.6c-3,0-4.3-3.3-4.3-6.6s1.3-6.6,4.3-6.6
	C101.5,96,102.8,99.3,102.8,102.7z M124.4,96c0-3.4-2.8-6.1-6.3-6.1c-3.6,0-6.3,2.7-6.3,6.1s2.8,6.1,6.3,6.1
	C121.6,102.1,124.4,99.4,124.4,96z M120.1,96c0,1.3-0.9,2.1-2.1,2.1c-1.2,0-2.1-0.9-2.1-2.1s0.9-2.1,2.1-2.1
	C119.2,93.9,120.1,94.8,120.1,96z M137.9,90.3h-5.5L114,115h5.5L137.9,90.3z M127.5,109.2c0,3.4,2.8,6.1,6.3,6.1s6.3-2.7,6.3-6.1
	c0-3.4-2.8-6.1-6.3-6.1S127.5,105.8,127.5,109.2z M131.8,109.2c0-1.3,0.9-2.1,2.1-2.1s2.1,0.9,2.1,2.1c0,1.3-0.9,2.1-2.1,2.1
	S131.8,110.5,131.8,109.2z"/>
</svg>
